X: 1
T: Farewell to Cramond
C: Muriel A. Johnstone
R: strathspey
B: "4 SCD" 1978
Z: 2004 John Chambers <jc:trillian.mit.edu>
M: C
L: 1/16
K: A
ED |\
"A"CA,3 C3E "(F#m)"A3B c3A | "Bm"dF3 F3A "E7"GABA GFED |\
"A"CA,3 C3E "F#m"A3B c3A | "D"ff3 "E7"e3d "A"cA3 A2 :|
c2 |\
"A"ee3 f3e "E"dc3 c3B | "F#m"AA3 c3A "E7"E4 E3A |\
"D"FF3 f3e "Bm"d2c2 B2A2 | "B7"BF3 B3A "E7"G4 F2E2 |
|\
"A"ee2 a3g "E"f2e2 e2d2 | "F#m"cA3 f3e "E7"e6 E2 |\
"D"FD3 F3A "Bm"d3e f2e2 | "E7"ec3 B3A "A"A6 |]

%%sep 1 1 500

